svg/color/drgnbull.svg

<?xml version="1.0" encoding="UTF-8" ?>
<!DOCTYPE svg PUBLIC "-//W3C//DTD SVG 1.1//EN" "http://www.w3.org/Graphics/SVG/1.1/DTD/svg11.dtd">
<svg width="250pt" height="214pt" viewBox="0 0 250 214" version="1.1" xmlns="http://www.w3.org/2000/svg">
<g id="#ffffffff">
<path fill="#ffffff" opacity="1.00" d=" M 0.00 0.00 L 250.00 0.00 L 250.00 214.00 L 0.00 214.00 L 0.00 0.00 M 75.48 11.67 C 72.73 11.71 72.98 14.99 72.79 16.92 C 72.70 29.28 72.94 41.64 72.74 54.00 C 72.77 57.16 72.56 60.39 73.39 63.47 C 74.78 64.98 77.09 64.52 78.92 64.72 C 128.63 64.51 178.34 64.70 228.04 64.63 C 229.45 64.43 231.31 64.64 232.12 63.19 C 232.77 60.86 232.65 58.42 232.69 56.03 C 232.49 43.00 232.64 29.96 232.65 16.94 C 232.39 15.26 232.90 12.92 231.17 11.91 C 229.84 11.50 228.44 11.45 227.07 11.39 C 181.38 11.52 135.69 11.41 90.00 11.45 C 85.16 11.53 80.29 11.04 75.48 11.67 M 11.50 82.99 C 11.52 99.66 11.49 116.34 11.52 133.01 C 13.66 133.28 15.80 133.55 17.96 133.56 C 30.65 133.48 43.34 133.47 56.03 133.56 C 58.22 133.55 60.39 133.30 62.55 133.02 C 62.54 116.36 62.54 99.69 62.55 83.02 C 57.39 82.29 52.18 82.61 46.99 82.59 C 35.17 82.86 23.30 82.04 11.50 82.99 M 74.02 83.01 C 73.32 88.32 73.63 93.67 73.61 99.00 C 73.85 110.37 73.12 121.77 73.98 133.12 C 79.63 133.81 85.32 133.47 91.00 133.50 C 117.33 133.51 143.67 133.50 170.00 133.50 C 175.53 133.46 181.08 133.82 186.58 133.12 C 186.59 116.42 186.62 99.71 186.57 83.01 C 181.40 82.32 176.19 82.61 171.01 82.60 C 144.00 82.58 117.00 82.60 90.00 82.59 C 84.67 82.61 79.32 82.29 74.02 83.01 M 74.18 152.42 C 73.65 154.90 73.27 157.42 73.35 159.96 C 73.54 172.66 73.42 185.37 73.39 198.07 C 73.61 199.84 73.09 202.88 75.46 203.32 C 82.27 204.17 89.16 203.44 96.00 203.65 C 105.46 203.46 114.94 204.08 124.38 203.37 C 125.11 197.27 124.69 191.12 124.73 185.00 C 124.49 174.20 125.24 163.38 124.42 152.61 C 116.96 152.00 109.47 152.53 102.00 152.38 C 92.73 152.48 83.45 152.20 74.18 152.42 Z" />
</g>
<g id="#abebf4ff">
<path fill="#abebf4" opacity="1.00" d=" M 75.48 11.67 C 80.29 11.04 85.16 11.53 90.00 11.45 C 135.69 11.41 181.38 11.52 227.07 11.39 C 228.44 11.45 229.84 11.50 231.17 11.91 C 232.90 12.92 232.39 15.26 232.65 16.94 C 232.64 29.96 232.49 43.00 232.69 56.03 C 232.65 58.42 232.77 60.86 232.12 63.19 C 231.31 64.64 229.45 64.43 228.04 64.63 C 178.34 64.70 128.63 64.51 78.92 64.72 C 77.09 64.52 74.78 64.98 73.39 63.47 C 72.56 60.39 72.77 57.16 72.74 54.00 C 72.94 41.64 72.70 29.28 72.79 16.92 C 72.98 14.99 72.73 11.71 75.48 11.67 M 74.51 13.66 C 74.34 30.15 74.16 46.67 74.61 63.15 C 124.07 63.55 173.54 63.13 223.01 63.36 C 225.54 63.38 228.07 63.18 230.59 62.96 C 230.67 46.59 230.59 30.22 230.63 13.85 C 228.10 13.63 225.55 13.43 223.01 13.46 C 173.51 13.68 124.01 13.27 74.51 13.66 Z" />
<path fill="#abebf4" opacity="1.00" d=" M 74.18 152.42 C 83.45 152.20 92.73 152.48 102.00 152.38 C 109.47 152.53 116.96 152.00 124.42 152.61 C 125.24 163.38 124.49 174.20 124.73 185.00 C 124.69 191.12 125.11 197.27 124.38 203.37 C 114.94 204.08 105.46 203.46 96.00 203.65 C 89.16 203.44 82.27 204.17 75.46 203.32 C 73.09 202.88 73.61 199.84 73.39 198.07 C 73.42 185.37 73.54 172.66 73.35 159.96 C 73.27 157.42 73.65 154.90 74.18 152.42 Z" />
</g>
<g id="#02a5c2ff">
<path fill="#02a5c2" opacity="1.00" d=" M 74.51 13.66 C 124.01 13.27 173.51 13.68 223.01 13.46 C 225.55 13.43 228.10 13.63 230.63 13.85 C 230.59 30.22 230.67 46.59 230.59 62.96 C 228.07 63.18 225.54 63.38 223.01 63.36 C 173.54 63.13 124.07 63.55 74.61 63.15 C 74.16 46.67 74.34 30.15 74.51 13.66 Z" />
</g>
<g id="#5fcadeff">
<path fill="#5fcade" opacity="1.00" d=" M 11.50 82.99 C 23.30 82.04 35.17 82.86 46.99 82.59 C 52.18 82.61 57.39 82.29 62.55 83.02 C 62.54 99.69 62.54 116.36 62.55 133.02 C 60.39 133.30 58.22 133.55 56.03 133.56 C 43.34 133.47 30.65 133.48 17.96 133.56 C 15.80 133.55 13.66 133.28 11.52 133.01 C 11.49 116.34 11.52 99.66 11.50 82.99 Z" />
<path fill="#5fcade" opacity="1.00" d=" M 74.02 83.01 C 79.32 82.29 84.67 82.61 90.00 82.59 C 117.00 82.60 144.00 82.58 171.01 82.60 C 176.19 82.61 181.40 82.32 186.57 83.01 C 186.62 99.71 186.59 116.42 186.58 133.12 C 181.08 133.82 175.53 133.46 170.00 133.50 C 143.67 133.50 117.33 133.51 91.00 133.50 C 85.32 133.47 79.63 133.81 73.98 133.12 C 73.12 121.77 73.85 110.37 73.61 99.00 C 73.63 93.67 73.32 88.32 74.02 83.01 Z" />
</g>
</svg>

<?xml version="1.0" encoding="utf-8"?>
<!-- Generator: Adobe Illustrator 26.0.3, SVG Export Plug-In . SVG Version: 6.00 Build 0)  -->
<svg version="1.1" id="Layer_1" xmlns="http://www.w3.org/2000/svg" xmlns:xlink="http://www.w3.org/1999/xlink" x="0px" y="0px"
	 viewBox="0 0 250 214" style="enable-background:new 0 0 250 214;" xml:space="preserve">
<style type="text/css">
	.st0{fill:#ABEBF4;}
	.st1{fill:#02A5C2;}
	.st2{fill:#5FCADE;}
</style>
<g id="_x23_abebf4ff">
	<path class="st0" d="M75.5,11.7c4.8-0.6,9.7-0.1,14.5-0.2c45.7,0,91.4,0.1,137.1-0.1c1.4,0.1,2.8,0.1,4.1,0.5c1.7,1,1.2,3.4,1.5,5
		c0,13-0.2,26.1,0,39.1c0,2.4,0.1,4.8-0.6,7.2c-0.8,1.5-2.7,1.2-4.1,1.4c-49.7,0.1-99.4-0.1-149.1,0.1c-1.8-0.2-4.1,0.3-5.5-1.2
		c-0.8-3.1-0.6-6.3-0.7-9.5c0.2-12.4,0-24.7,0.1-37.1C73,15,72.7,11.7,75.5,11.7 M74.5,13.7c-0.2,16.5-0.3,33,0.1,49.5
		c49.5,0.4,98.9,0,148.4,0.2c2.5,0,5.1-0.2,7.6-0.4c0.1-16.4,0-32.7,0-49.1c-2.5-0.2-5.1-0.4-7.6-0.4C173.5,13.7,124,13.3,74.5,13.7
		z"/>
	<path class="st0" d="M74.2,152.4c9.3-0.2,18.6,0.1,27.8,0c7.5,0.1,15-0.4,22.4,0.2c0.8,10.8,0.1,21.6,0.3,32.4
		c0,6.1,0.4,12.3-0.4,18.4c-9.4,0.7-18.9,0.1-28.4,0.3c-6.8-0.2-13.7,0.5-20.5-0.3c-2.4-0.4-1.8-3.5-2.1-5.2c0-12.7,0.2-25.4,0-38.1
		C73.3,157.4,73.7,154.9,74.2,152.4z"/>
</g>
<g id="_x23_02a5c2ff">
	<path class="st1" d="M74.5,13.7c49.5-0.4,99,0,148.5-0.2c2.5,0,5.1,0.2,7.6,0.4c0,16.4,0,32.7,0,49.1c-2.5,0.2-5.1,0.4-7.6,0.4
		c-49.5-0.2-98.9,0.2-148.4-0.2C74.2,46.7,74.3,30.1,74.5,13.7z"/>
</g>
<g id="_x23_5fcadeff">
	<path class="st2" d="M11.5,83C23.3,82,35.2,82.9,47,82.6c5.2,0,10.4-0.3,15.6,0.4c0,16.7,0,33.3,0,50c-2.2,0.3-4.3,0.5-6.5,0.5
		c-12.7-0.1-25.4-0.1-38.1,0c-2.2,0-4.3-0.3-6.4-0.6C11.5,116.3,11.5,99.7,11.5,83z"/>
	<path class="st2" d="M74,83c5.3-0.7,10.7-0.4,16-0.4c27,0,54,0,81,0c5.2,0,10.4-0.3,15.6,0.4c0,16.7,0,33.4,0,50.1
		c-5.5,0.7-11.1,0.3-16.6,0.4c-26.3,0-52.7,0-79,0c-5.7,0-11.4,0.3-17-0.4c-0.9-11.3-0.1-22.7-0.4-34.1C73.6,93.7,73.3,88.3,74,83z"
		/>
</g>
</svg>
